inst/assets/svg/wi-thermometer-exterior.svg

<?xml version="1.0" encoding="UTF-8"?>
<svg xmlns="http://www.w3.org/2000/svg" xmlns:xlink="http://www.w3.org/1999/xlink" width="30pt" height="30pt" viewBox="0 0 30 30" version="1.1">
<g id="surface921">
<path style=" stroke:none;fill-rule:nonzero;fill:rgb(0%,0%,0%);fill-opacity:1;" d="M 9.910156 19.558594 C 9.910156 18.710938 10.109375 17.921875 10.5 17.179688 C 10.890625 16.441406 11.441406 15.828125 12.148438 15.339844 L 12.148438 5.421875 C 12.148438 4.621094 12.421875 3.941406 12.96875 3.390625 C 13.519531 2.839844 14.199219 2.550781 15 2.550781 C 15.808594 2.550781 16.488281 2.828125 17.039063 3.378906 C 17.589844 3.941406 17.871094 4.609375 17.871094 5.410156 L 17.871094 15.328125 C 18.578125 15.820313 19.121094 16.441406 19.511719 17.171875 C 19.898438 17.898438 20.089844 18.699219 20.089844 19.550781 C 20.089844 20.46875 19.859375 21.328125 19.410156 22.109375 C 18.960938 22.890625 18.339844 23.511719 17.558594 23.960938 C 16.78125 24.410156 15.929688 24.640625 15 24.640625 C 14.078125 24.640625 13.230469 24.410156 12.449219 23.960938 C 11.671875 23.511719 11.050781 22.890625 10.589844 22.109375 C 10.128906 21.328125 9.910156 20.480469 9.910156 19.558594 Z M 11.671875 19.558594 C 11.671875 20.488281 12 21.289063 12.648438 21.949219 C 13.300781 22.609375 14.089844 22.941406 15.011719 22.941406 C 15.941406 22.941406 16.738281 22.609375 17.410156 21.941406 C 18.078125 21.269531 18.421875 20.480469 18.421875 19.570313 C 18.421875 18.949219 18.261719 18.371094 17.941406 17.839844 C 17.621094 17.308594 17.179688 16.898438 16.621094 16.609375 L 16.339844 16.46875 C 16.238281 16.429688 16.191406 16.328125 16.191406 16.179688 L 16.191406 5.421875 C 16.191406 5.101563 16.078125 4.828125 15.851563 4.609375 C 15.621094 4.398438 15.339844 4.289063 15 4.289063 C 14.679688 4.289063 14.398438 4.398438 14.171875 4.609375 C 13.941406 4.820313 13.828125 5.089844 13.828125 5.421875 L 13.828125 16.160156 C 13.828125 16.308594 13.78125 16.410156 13.691406 16.449219 L 13.421875 16.589844 C 12.871094 16.878906 12.441406 17.289063 12.128906 17.820313 C 11.820313 18.351563 11.671875 18.921875 11.671875 19.558594 Z M 11.671875 19.558594 "/>
</g>
</svg>

<?xml version="1.0" encoding="utf-8"?>
<!-- Generator: Adobe Illustrator 22.0.1, SVG Export Plug-In . SVG Version: 6.00 Build 0)  -->
<svg version="1.1" id="Layer_1" xmlns="http://www.w3.org/2000/svg" xmlns:xlink="http://www.w3.org/1999/xlink" x="0px" y="0px"
	 viewBox="0 0 30 30" style="enable-background:new 0 0 30 30;" xml:space="preserve">
<path d="M9.91,19.56c0-0.85,0.2-1.64,0.59-2.38s0.94-1.35,1.65-1.84V5.42c0-0.8,0.27-1.48,0.82-2.03S14.2,2.55,15,2.55
	c0.81,0,1.49,0.28,2.04,0.83c0.55,0.56,0.83,1.23,0.83,2.03v9.92c0.71,0.49,1.25,1.11,1.64,1.84s0.58,1.53,0.58,2.38
	c0,0.92-0.23,1.78-0.68,2.56s-1.07,1.4-1.85,1.85s-1.63,0.68-2.56,0.68c-0.92,0-1.77-0.23-2.55-0.68s-1.4-1.07-1.86-1.85
	S9.91,20.48,9.91,19.56z M11.67,19.56c0,0.93,0.33,1.73,0.98,2.39c0.65,0.66,1.44,0.99,2.36,0.99c0.93,0,1.73-0.33,2.4-1
	s1.01-1.46,1.01-2.37c0-0.62-0.16-1.2-0.48-1.73c-0.32-0.53-0.76-0.94-1.32-1.23l-0.28-0.14c-0.1-0.04-0.15-0.14-0.15-0.29V5.42
	c0-0.32-0.11-0.59-0.34-0.81C15.62,4.4,15.34,4.29,15,4.29c-0.32,0-0.6,0.11-0.83,0.32c-0.23,0.21-0.34,0.48-0.34,0.81v10.74
	c0,0.15-0.05,0.25-0.14,0.29l-0.27,0.14c-0.55,0.29-0.98,0.7-1.29,1.23C11.82,18.35,11.67,18.92,11.67,19.56z"/>
</svg>
